!!!OTL: Donald Munro
!!!ONM: 61.
**kern
*clefG2
*k[b-e-a-]
*E-:
*M3/4
*MM80
{4B-
=1
4g
4g
4e-
=2
4e-
4B-
4B-
=3
4e-
4e-
4f
=4
4g
4r}
{4B-
=5
4g
4b-
4b-
=6
4b-
4a-
4g
=7
4g
4f
4e-
=8
4B-
4r}
{4B-
=9
4b-
4b-
4b-
=10
4cc
4b-
4e-
=11
4e-
4f
4d
=12
4B-
4r}
{4B-
=13
4e-
4e-
4f
=14
8g
8g
4g
4f
=15
4f
4e-
4d
=16
4e-
4r}
==
*-
!!!CNT: Folksongs of Maritime Canada
!!!MRD: 1928///-1932///
!!!OCL: Helen Creighton
!!!YOR: Songs and Ballads from Nova Scotia
!!!PPR: J.M. Dent & Sons, Limited
!!!PPP: Toronto, Canada
!!!PDT: 1932///
!!!reprint: Dover Publications, 1992: ISBN 0-486-21703-5
!!!ENC1: Craig Stuart Sapp (music and bibliographic data)                       
!!!ENC2: Marcus Pearce (phrase markings and key designations)                   
!!!ENC3: Darrell Conklin (phrase markings and key designations)   
!!!END: 2002/04/10/
!!!EEV: 2004/06/05
!!!MPN: Mr. Ben Henneberry
!!!PPG: 124
!!!EFL: 62/152
!!!ARE: Canada; Nova Scotia
!!!verses: 9
!!!VTS: 1763846670
